_site/images/homepage/pricelist-illustration.svg

<svg fill="none" height="297" viewBox="0 0 314 297" width="314" xmlns="http://www.w3.org/2000/svg" xmlns:xlink="http://www.w3.org/1999/xlink"><filter id="a" color-interpolation-filters="sRGB" filterUnits="userSpaceOnUse" height="287" width="287" x="27" y="0"><feFlood flood-opacity="0" result="BackgroundImageFix"/><feColorMatrix in="SourceAlpha" result="hardAlpha" type="matrix" values="0 0 0 0 0 0 0 0 0 0 0 0 0 0 0 0 0 0 127 0"/><feOffset dy="15"/><feGaussianBlur stdDeviation="22.5"/><feColorMatrix type="matrix" values="0 0 0 0 0.719566 0 0 0 0 0.748166 0 0 0 0 0.795833 0 0 0 0.25 0"/><feBlend in2="BackgroundImageFix" mode="normal" result="effect1_dropShadow_3524:17033"/><feBlend in="SourceGraphic" in2="effect1_dropShadow_3524:17033" mode="normal" result="shape"/></filter><filter id="b" color-interpolation-filters="sRGB" filterUnits="userSpaceOnUse" height="173" width="173" x="0" y="124"><feFlood flood-opacity="0" result="BackgroundImageFix"/><feColorMatrix in="SourceAlpha" result="hardAlpha" type="matrix" values="0 0 0 0 0 0 0 0 0 0 0 0 0 0 0 0 0 0 127 0"/><feOffset dx="9" dy="20"/><feGaussianBlur stdDeviation="20"/><feColorMatrix type="matrix" values="0 0 0 0 0 0 0 0 0 0.351917 0 0 0 0 0.429167 0 0 0 0.25 0"/><feBlend in2="BackgroundImageFix" mode="normal" result="effect1_dropShadow_3524:17033"/><feBlend in="SourceGraphic" in2="effect1_dropShadow_3524:17033" mode="normal" result="shape"/></filter><clipPath id="c"><path d="m137 85h77v77h-77z"/></clipPath><g filter="url(#a)"><rect fill="#fff" height="197" rx="30" width="197" x="72" y="30"/></g><g filter="url(#b)"><rect fill="#96d2e6" height="93" rx="22" width="93" x="31" y="144"/></g><rect fill="#ffc634" height="49" rx="11" width="49" x="245" y="144"/><rect fill="#9cd7eb" height="20" rx="10" transform="matrix(-1 0 0 -1 330 80)" width="57" x="165" y="40"/><rect fill="#9cd7eb" height="20" rx="10" transform="matrix(-1 0 0 -1 466 474)" width="28" x="233" y="237"/><g fill="#fff"><path d="m77.5 213c-6.01 0-11.6603-2.34-15.91-6.59-4.2496-4.25-6.59-9.9-6.59-15.91s2.3404-11.66 6.59-15.91 9.9-6.59 15.91-6.59 11.6603 2.34 15.91 6.59c4.2496 4.25 6.59 9.9 6.59 15.91s-2.3404 11.66-6.59 15.91-9.9 6.59-15.91 6.59zm0-42.188c-10.8557 0-19.6875 8.832-19.6875 19.688s8.8318 19.688 19.6875 19.688 19.6875-8.832 19.6875-19.688-8.8318-19.688-19.6875-19.688z"/><path d="m77.5 189.094c-1.9385 0-3.5156-1.577-3.5156-3.516 0-1.938 1.5771-3.516 3.5156-3.516s3.5156 1.578 3.5156 3.516c0 .777.6296 1.406 1.4063 1.406s1.4062-.629 1.4062-1.406c0-3.006-2.1074-5.527-4.9219-6.169v-1.565c0-.777-.6295-1.406-1.4062-1.406s-1.4062.629-1.4062 1.406v1.565c-2.8145.642-4.9219 3.163-4.9219 6.169 0 3.489 2.8388 6.328 6.3281 6.328 1.9385 0 3.5156 1.577 3.5156 3.516 0 1.938-1.5771 3.516-3.5156 3.516s-3.5156-1.578-3.5156-3.516c0-.777-.6296-1.406-1.4063-1.406s-1.4062.629-1.4062 1.406c0 3.006 2.1074 5.527 4.9219 6.169v1.565c0 .777.6295 1.406 1.4062 1.406s1.4062-.629 1.4062-1.406v-1.565c2.8145-.642 4.9219-3.163 4.9219-6.169 0-3.489-2.8388-6.328-6.3281-6.328z"/><path d="m269.5 180c-3.072 0-5.96-1.196-8.132-3.368s-3.368-5.06-3.368-8.132 1.196-5.96 3.368-8.132 5.06-3.368 8.132-3.368 5.96 1.196 8.132 3.368 3.368 5.06 3.368 8.132-1.196 5.96-3.368 8.132-5.06 3.368-8.132 3.368zm0-21.562c-5.548 0-10.062 4.514-10.062 10.062s4.514 10.062 10.062 10.062 10.062-4.514 10.062-10.062-4.514-10.062-10.062-10.062z"/><path d="m269.5 167.781c-.991 0-1.797-.806-1.797-1.797 0-.99.806-1.796 1.797-1.796s1.797.806 1.797 1.796c0 .397.322.719.719.719s.718-.322.718-.719c0-1.536-1.077-2.825-2.515-3.153v-.8c0-.397-.322-.719-.719-.719s-.719.322-.719.719v.8c-1.438.328-2.515 1.617-2.515 3.153 0 1.784 1.451 3.235 3.234 3.235.991 0 1.797.806 1.797 1.797 0 .99-.806 1.796-1.797 1.796s-1.797-.806-1.797-1.796c0-.397-.322-.719-.719-.719s-.718.322-.718.719c0 1.536 1.077 2.825 2.515 3.153v.8c0 .397.322.719.719.719s.719-.322.719-.719v-.8c1.438-.328 2.515-1.617 2.515-3.153 0-1.784-1.451-3.235-3.234-3.235z"/></g><g clip-path="url(#c)" fill="#00a0b6"><path d="m205.177 158.741h-59.354c-4.867 0-8.823-3.955-8.823-8.822v-52.9377c0-4.8671 3.956-8.8231 8.823-8.8231h59.354c4.867 0 8.823 3.956 8.823 8.8231v52.9377c0 4.867-3.956 8.822-8.823 8.822zm-59.354-65.7703c-2.211 0-4.011 1.8-4.011 4.0106v52.9377c0 2.21 1.8 4.01 4.011 4.01h59.354c2.211 0 4.011-1.8 4.011-4.01v-52.9377c0-2.2106-1.8-4.0106-4.011-4.0106z"/><path d="m211.594 112.221h-72.188c-1.328 0-2.406-1.078-2.406-2.407 0-1.328 1.078-2.406 2.406-2.406h72.188c1.328 0 2.406 1.078 2.406 2.406 0 1.329-1.078 2.407-2.406 2.407z"/><path d="m211.594 128.263h-72.188c-1.328 0-2.406-1.078-2.406-2.407 0-1.328 1.078-2.406 2.406-2.406h72.188c1.328 0 2.406 1.078 2.406 2.406 0 1.329-1.078 2.407-2.406 2.407z"/><path d="m211.594 144.304h-72.188c-1.328 0-2.406-1.078-2.406-2.407 0-1.328 1.078-2.406 2.406-2.406h72.188c1.328 0 2.406 1.078 2.406 2.406 0 1.329-1.078 2.407-2.406 2.407z"/><path d="m157.052 158.741c-1.328 0-2.406-1.078-2.406-2.406v-46.521c0-1.328 1.078-2.406 2.406-2.406s2.406 1.078 2.406 2.406v46.521c0 1.328-1.078 2.406-2.406 2.406z"/><path d="m175.5 158.741c-1.328 0-2.406-1.078-2.406-2.406v-46.521c0-1.328 1.078-2.406 2.406-2.406s2.406 1.078 2.406 2.406v46.521c0 1.328-1.078 2.406-2.406 2.406z"/><path d="m193.948 158.741c-1.328 0-2.406-1.078-2.406-2.406v-46.521c0-1.328 1.078-2.406 2.406-2.406s2.406 1.078 2.406 2.406v46.521c0 1.328-1.078 2.406-2.406 2.406z"/></g></svg>

<svg width="314" height="297" viewBox="0 0 314 297" fill="none" xmlns="http://www.w3.org/2000/svg">
<g filter="url(#filter0_d_3524:17033)">
<rect x="72" y="30" width="197" height="197" rx="30" fill="white"/>
</g>
<g filter="url(#filter1_d_3524:17033)">
<rect x="31" y="144" width="93" height="93" rx="22" fill="#96D2E6"/>
</g>
<rect x="245" y="144" width="49" height="49" rx="11" fill="#FFC634"/>
<rect x="165" y="40" width="57" height="20" rx="10" transform="rotate(-180 165 40)" fill="#9CD7EB"/>
<rect x="233" y="237" width="28" height="20" rx="10" transform="rotate(-180 233 237)" fill="#9CD7EB"/>
<path d="M77.5 213C71.49 213 65.8397 210.66 61.59 206.41C57.3404 202.16 55 196.51 55 190.5C55 184.49 57.3404 178.84 61.59 174.59C65.8396 170.34 71.49 168 77.5 168C83.51 168 89.1603 170.34 93.41 174.59C97.6596 178.84 100 184.49 100 190.5C100 196.51 97.6596 202.16 93.41 206.41C89.1604 210.66 83.51 213 77.5 213ZM77.5 170.812C66.6443 170.812 57.8125 179.644 57.8125 190.5C57.8125 201.356 66.6443 210.188 77.5 210.188C88.3557 210.188 97.1875 201.356 97.1875 190.5C97.1875 179.644 88.3557 170.812 77.5 170.812Z" fill="white"/>
<path d="M77.5 189.094C75.5615 189.094 73.9844 187.517 73.9844 185.578C73.9844 183.64 75.5615 182.062 77.5 182.062C79.4385 182.062 81.0156 183.64 81.0156 185.578C81.0156 186.355 81.6452 186.984 82.4219 186.984C83.1986 186.984 83.8281 186.355 83.8281 185.578C83.8281 182.572 81.7207 180.051 78.9062 179.409V177.844C78.9062 177.067 78.2767 176.438 77.5 176.438C76.7233 176.438 76.0938 177.067 76.0938 177.844V179.409C73.2793 180.051 71.1719 182.572 71.1719 185.578C71.1719 189.067 74.0107 191.906 77.5 191.906C79.4385 191.906 81.0156 193.483 81.0156 195.422C81.0156 197.36 79.4385 198.938 77.5 198.938C75.5615 198.938 73.9844 197.36 73.9844 195.422C73.9844 194.645 73.3548 194.016 72.5781 194.016C71.8014 194.016 71.1719 194.645 71.1719 195.422C71.1719 198.428 73.2793 200.949 76.0938 201.591V203.156C76.0938 203.933 76.7233 204.562 77.5 204.562C78.2767 204.562 78.9062 203.933 78.9062 203.156V201.591C81.7207 200.949 83.8281 198.428 83.8281 195.422C83.8281 191.933 80.9893 189.094 77.5 189.094Z" fill="white"/>
<path d="M269.5 180C266.428 180 263.54 178.804 261.368 176.632C259.196 174.46 258 171.572 258 168.5C258 165.428 259.196 162.54 261.368 160.368C263.54 158.196 266.428 157 269.5 157C272.572 157 275.46 158.196 277.632 160.368C279.804 162.54 281 165.428 281 168.5C281 171.572 279.804 174.46 277.632 176.632C275.46 178.804 272.572 180 269.5 180ZM269.5 158.438C263.952 158.438 259.438 162.952 259.438 168.5C259.438 174.048 263.952 178.562 269.5 178.562C275.048 178.562 279.562 174.048 279.562 168.5C279.562 162.952 275.048 158.438 269.5 158.438Z" fill="white"/>
<path d="M269.5 167.781C268.509 167.781 267.703 166.975 267.703 165.984C267.703 164.994 268.509 164.188 269.5 164.188C270.491 164.188 271.297 164.994 271.297 165.984C271.297 166.381 271.619 166.703 272.016 166.703C272.413 166.703 272.734 166.381 272.734 165.984C272.734 164.448 271.657 163.159 270.219 162.831V162.031C270.219 161.634 269.897 161.312 269.5 161.312C269.103 161.312 268.781 161.634 268.781 162.031V162.831C267.343 163.159 266.266 164.448 266.266 165.984C266.266 167.768 267.717 169.219 269.5 169.219C270.491 169.219 271.297 170.025 271.297 171.016C271.297 172.006 270.491 172.812 269.5 172.812C268.509 172.812 267.703 172.006 267.703 171.016C267.703 170.619 267.381 170.297 266.984 170.297C266.587 170.297 266.266 170.619 266.266 171.016C266.266 172.552 267.343 173.841 268.781 174.169V174.969C268.781 175.366 269.103 175.688 269.5 175.688C269.897 175.688 270.219 175.366 270.219 174.969V174.169C271.657 173.841 272.734 172.552 272.734 171.016C272.734 169.232 271.283 167.781 269.5 167.781Z" fill="white"/>
<g clip-path="url(#clip0_3524:17033)">
<path d="M205.177 158.741H145.823C140.956 158.741 137 154.786 137 149.919V96.9813C137 92.1142 140.956 88.1582 145.823 88.1582H205.177C210.044 88.1582 214 92.1142 214 96.9813V149.919C214 154.786 210.044 158.741 205.177 158.741ZM145.823 92.9707C143.612 92.9707 141.812 94.7707 141.812 96.9813V149.919C141.812 152.129 143.612 153.929 145.823 153.929H205.177C207.388 153.929 209.188 152.129 209.188 149.919V96.9813C209.188 94.7707 207.388 92.9707 205.177 92.9707H145.823Z" fill="#00A0B6"/>
<path d="M211.594 112.221H139.406C138.078 112.221 137 111.143 137 109.814C137 108.486 138.078 107.408 139.406 107.408H211.594C212.922 107.408 214 108.486 214 109.814C214 111.143 212.922 112.221 211.594 112.221Z" fill="#00A0B6"/>
<path d="M211.594 128.263H139.406C138.078 128.263 137 127.185 137 125.856C137 124.528 138.078 123.45 139.406 123.45H211.594C212.922 123.45 214 124.528 214 125.856C214 127.185 212.922 128.263 211.594 128.263Z" fill="#00A0B6"/>
<path d="M211.594 144.304H139.406C138.078 144.304 137 143.226 137 141.897C137 140.569 138.078 139.491 139.406 139.491H211.594C212.922 139.491 214 140.569 214 141.897C214 143.226 212.922 144.304 211.594 144.304Z" fill="#00A0B6"/>
<path d="M157.052 158.741C155.724 158.741 154.646 157.663 154.646 156.335V109.814C154.646 108.486 155.724 107.408 157.052 107.408C158.38 107.408 159.458 108.486 159.458 109.814V156.335C159.458 157.663 158.38 158.741 157.052 158.741Z" fill="#00A0B6"/>
<path d="M175.5 158.741C174.172 158.741 173.094 157.663 173.094 156.335V109.814C173.094 108.486 174.172 107.408 175.5 107.408C176.828 107.408 177.906 108.486 177.906 109.814V156.335C177.906 157.663 176.828 158.741 175.5 158.741Z" fill="#00A0B6"/>
<path d="M193.948 158.741C192.62 158.741 191.542 157.663 191.542 156.335V109.814C191.542 108.486 192.62 107.408 193.948 107.408C195.276 107.408 196.354 108.486 196.354 109.814V156.335C196.354 157.663 195.276 158.741 193.948 158.741Z" fill="#00A0B6"/>
</g>
<defs>
<filter id="filter0_d_3524:17033" x="27" y="0" width="287" height="287" filterUnits="userSpaceOnUse" color-interpolation-filters="sRGB">
<feFlood flood-opacity="0" result="BackgroundImageFix"/>
<feColorMatrix in="SourceAlpha" type="matrix" values="0 0 0 0 0 0 0 0 0 0 0 0 0 0 0 0 0 0 127 0" result="hardAlpha"/>
<feOffset dy="15"/>
<feGaussianBlur stdDeviation="22.5"/>
<feColorMatrix type="matrix" values="0 0 0 0 0.719566 0 0 0 0 0.748166 0 0 0 0 0.795833 0 0 0 0.25 0"/>
<feBlend mode="normal" in2="BackgroundImageFix" result="effect1_dropShadow_3524:17033"/>
<feBlend mode="normal" in="SourceGraphic" in2="effect1_dropShadow_3524:17033" result="shape"/>
</filter>
<filter id="filter1_d_3524:17033" x="0" y="124" width="173" height="173" filterUnits="userSpaceOnUse" color-interpolation-filters="sRGB">
<feFlood flood-opacity="0" result="BackgroundImageFix"/>
<feColorMatrix in="SourceAlpha" type="matrix" values="0 0 0 0 0 0 0 0 0 0 0 0 0 0 0 0 0 0 127 0" result="hardAlpha"/>
<feOffset dx="9" dy="20"/>
<feGaussianBlur stdDeviation="20"/>
<feColorMatrix type="matrix" values="0 0 0 0 0 0 0 0 0 0.351917 0 0 0 0 0.429167 0 0 0 0.25 0"/>
<feBlend mode="normal" in2="BackgroundImageFix" result="effect1_dropShadow_3524:17033"/>
<feBlend mode="normal" in="SourceGraphic" in2="effect1_dropShadow_3524:17033" result="shape"/>
</filter>
<clipPath id="clip0_3524:17033">
<rect width="77" height="77" fill="white" transform="translate(137 85)"/>
</clipPath>
</defs>
</svg>
